X:1
T:Macedonia, CMD
T:Macedonia, CMD
T:Scott S.Werdebaugh, 1983
T:© 1983 Scott Werdebaugh. Reproduce or publish freely for Christian worship or devotions. Courtesy of the Cyber Hymnal™
C:Scott S.Werdebaugh, 1983
Z:© 1983 Scott Werdebaugh. Reproduce or publish freely for Christian worship or devotions.
Z:Courtesy of the Cyber Hymnal™
%%score 1 ( 2 3 ) 4
L:1/8
Q:1/4=108
M:4/4
K:C
V:1 treble 
V:2 treble 
V:3 treble 
V:4 bass 
V:1
 C2 | E2 E2 F2 E2 | E3 D C2 E2 | G3 G G2 F2 | E6 G2 | A3 A B2 A2 | A3 G G2 G2 | ^F3 D E2 F2 | %8
 G6 G2 | c2 c2 B2 A2 | G3 F E2 G2 | A3 G F2 E2 | D6 D2 | D2 D2 E2 F2 | F3 E E2 C2 | E3 E E3 D | %16
 C6 |] %17
V:2
 C2 | [CE]2 [CE]2 [CF]2 [CE]2 | [B,E]3 [B,D] C2 [CE]2 | [DG]3 [EG] [FG]2 [DF]2 | [CE]6 [EG]2 | %5
 [FA]3 [FA] [GB]2 [FA]2 | [FA]3 [EG] [EG]2 [EG]2 | [D^F]3 D [CE]2 [DF]2 | [DG]6 [FG]2 | %9
 [Gc]2 [Gc]2 [DB]2 [FA]2 | [DG]3 [DF] [CE]2 [EG]2 | [FA]3 [EG] [DF]2 [CE]2 | [B,D]6 [B,D]2 | %13
 [B,D]2 [B,D]2 [CE]2 [CF]2 | [CF]3 [CE] [CE]2 C2 | [CE]3 [CE] [B,E]3 [B,D] | C6 |] %17
V:3
 C2 | x8 | x4 C2 x2 | x8 | x8 | x8 | x8 | x3 D x4 | x8 | x8 | x8 | x8 | x8 | x8 | x6 C2 | x8 | %16
 C6 |] %17
V:4
 [E,G,]2 | [C,G,]2 [C,G,]2 [A,,F,]2 [C,G,]2 | [G,,G,]3 [G,,F,] [G,,E,]2 [C,G,]2 | %3
 [B,,G,]3 [C,G,] [D,G,]2 [G,B,]2 | [C,G,]6 [C,G,]2 | [C,A,]3 [C,A,] [D,G,]2 [C,F,]2 | %6
 [C,F,]3 [C,G,] [C,G,]2 [C,G,]2 | [D,A,]3 [^F,A,] [C,G,]2 [A,,F,]2 | [G,,B,]6 [D,B,]2 | %9
 [E,G,]2 [C,E,]2 [G,,G,]2 [C,F,]2 | [B,,G,]3 [G,,G,] [C,G,]2 [C,G,]2 | %11
 [C,F,]3 [C,E,] [B,,G,]2 [C,G,]2 | [G,,G,]6 [G,,G,]2 | [G,,F,]2 [G,,F,]2 [C,G,]2 [D,F,]2 | %14
 [F,A,]3 [C,G,] [C,G,]2 [E,G,]2 | [C,G,]3 [C,G,] [G,,G,]3 [G,,G,] | [C,E,G,]6 |] %17

